img/icon__advantages-3.svg

<svg width="60" height="60" viewBox="0 0 60 60" fill="none" xmlns="http://www.w3.org/2000/svg">
<path d="M32.6816 3.62716C32.6816 5.10806 31.4809 6.30876 30 6.30876C28.5191 6.30876 27.3185 5.10806 27.3185 3.62716C27.3185 2.14626 28.5191 0.945557 30 0.945557C31.4809 0.945557 32.6816 2.14626 32.6816 3.62716ZM32.6816 56.3728C32.6816 57.8537 31.4809 59.0544 30 59.0544C28.5191 59.0544 27.3185 57.8537 27.3185 56.3728C27.3185 54.8919 28.5192 53.6912 30 53.6912C31.4809 53.6912 32.6816 54.892 32.6816 56.3728ZM16.6678 7.0877C17.5383 8.28571 17.2726 9.9629 16.0746 10.8334C14.8766 11.7038 13.1994 11.4381 12.3289 10.24C11.4585 9.04204 11.7241 7.36485 12.9221 6.49438C14.1203 5.62392 15.7975 5.8897 16.6678 7.0877ZM47.6711 49.7599C48.5415 50.9579 48.2759 52.6351 47.0778 53.5056C45.8798 54.376 44.2027 54.1102 43.3322 52.9122C42.4617 51.7142 42.7274 50.037 43.9254 49.1666C45.1234 48.2961 46.8006 48.5618 47.6711 49.7599ZM5.74652 19.2999C7.15488 19.7575 7.92585 21.2706 7.46824 22.6789C7.01062 24.0873 5.49761 24.8581 4.08925 24.4005C2.68089 23.9429 1.90992 22.4299 2.36753 21.0215C2.82515 19.6132 4.33816 18.8423 5.74652 19.2999ZM55.9107 35.5993C57.3191 36.0569 58.0901 37.5698 57.6325 38.9783C57.1748 40.3866 55.6618 41.1575 54.2535 40.6999C52.8451 40.2423 52.0741 38.7294 52.5318 37.3209C52.9894 35.9125 54.5024 35.1417 55.9107 35.5993ZM4.08925 35.5993C5.49761 35.1417 7.01062 35.9125 7.46824 37.321C7.92585 38.7294 7.15488 40.2424 5.74652 40.7C4.33816 41.1576 2.82515 40.3868 2.36753 38.9784C1.90992 37.5698 2.68089 36.0569 4.08925 35.5993ZM54.2534 19.2999C55.6617 18.8423 57.1747 19.6132 57.6323 21.0216C58.09 22.43 57.319 23.943 55.9106 24.4006C54.5023 24.8583 52.9893 24.0874 52.5316 22.679C52.074 21.2706 52.845 19.7575 54.2534 19.2999ZM12.3289 49.7599C13.1994 48.5619 14.8765 48.2961 16.0746 49.1667C17.2726 50.0372 17.5383 51.7142 16.6678 52.9124C15.7973 54.1104 14.1203 54.3761 12.9221 53.5057C11.7241 52.6351 11.4586 50.9579 12.3289 49.7599ZM43.3322 7.0877C44.2027 5.8897 45.8797 5.62392 47.0778 6.4945C48.2759 7.36497 48.5415 9.04204 47.6711 10.2402C46.8006 11.4383 45.1235 11.704 43.9254 10.8335C42.7273 9.9629 42.4617 8.28571 43.3322 7.0877Z" fill="#FF9494"/>
<path d="M47.074 29.9945C47.074 39.4335 39.4335 47.074 30.0054 47.074C20.5773 47.074 12.9259 39.4335 12.9259 29.9945C12.9259 20.5664 20.5773 12.9259 30.0054 12.9259C39.4335 12.926 47.074 20.5664 47.074 29.9945Z" fill="white"/>
<path d="M32.9293 21.9218V24.1222C32.9293 25.74 31.6179 27.0515 30 27.0515C28.3822 27.0515 27.0707 25.7401 27.0707 24.1222V21.9218C27.0707 20.304 28.3821 18.9924 30 18.9924C31.6178 18.9924 32.9293 20.304 32.9293 21.9218ZM37.7297 37.4034C32.5766 39.8456 27.4235 39.8456 22.2703 37.4034C22.2703 33.1316 25.7327 29.6693 29.9955 29.6693C34.2673 29.6693 37.7297 33.1316 37.7297 37.4034Z" fill="#FFD7D7"/>
<path d="M56.2007 34.7077C54.6135 34.1921 52.9337 34.8473 52.0621 36.1825L47.377 34.6602C47.7776 33.1691 48.0112 31.6103 48.0112 29.9944C48.0112 28.3823 47.7783 26.8268 47.379 25.3389L52.0578 23.8186C52.9387 25.1703 54.6197 25.806 56.2002 25.2922C58.0985 24.6752 59.1429 22.6384 58.524 20.7318C57.9071 18.8344 55.8611 17.7914 53.9637 18.4083C52.3761 18.9244 51.4025 20.4415 51.4826 22.0343L46.8006 23.5557C45.6565 20.5823 43.7583 17.9833 41.3235 16.009L44.2105 12.0354C45.7884 12.6422 47.4878 12.0869 48.4295 10.791C49.6003 9.17875 49.2527 6.91692 47.6286 5.7359C46.0099 4.5611 43.7508 4.91852 42.574 6.53676C41.6462 7.81434 41.6136 9.59078 42.6971 10.9288L39.805 14.9095C37.2274 13.2292 34.1958 12.2038 30.9371 12.0358V7.10723C32.4766 6.69133 33.6189 5.29645 33.6189 3.62735C33.6189 1.63199 31.9951 0.00836182 29.9999 0.00836182C28.0046 0.00836182 26.3809 1.63211 26.3809 3.62735C26.3809 5.29656 27.5231 6.69133 29.0626 7.10723V12.0365C25.8045 12.2063 22.7733 13.2319 20.1961 14.9118L17.3025 10.9292C18.3855 9.59207 18.3543 7.81551 17.4258 6.53699C16.2517 4.92239 13.9929 4.55758 12.3711 5.73614C10.7565 6.91024 10.3927 9.16949 11.5703 10.7913C12.518 12.0953 14.2215 12.6386 15.789 12.0358L18.6776 16.0115C16.2427 17.9854 14.3443 20.5836 13.2 23.5558L8.51719 22.0342C8.59687 20.4416 7.62351 18.9247 6.03609 18.4087C4.13965 17.7918 2.09262 18.8348 1.47574 20.7322C0.857108 22.6384 1.9009 24.6754 3.79957 25.2925C5.37562 25.8048 7.05879 25.1745 7.94215 23.8186L12.6212 25.3389C12.2216 26.827 11.9885 28.3824 11.9885 29.9947C11.9885 31.6107 12.2223 33.1696 12.6232 34.6607L7.93805 36.1831C7.06664 34.8475 5.38722 34.1922 3.7991 34.7079C1.90125 35.3248 0.859217 37.3704 1.47562 39.2683C2.09144 41.1627 4.13308 42.2079 6.03598 41.5918C7.6234 41.0758 8.59687 39.5589 8.51707 37.9662L13.2022 36.4438C14.347 39.4157 16.2449 42.0134 18.6786 43.9872L15.7855 47.9692C14.182 47.3539 12.5014 47.9276 11.5702 49.2089C10.3993 50.8212 10.7469 53.083 12.371 54.2641C13.999 55.4464 16.2565 55.071 17.4257 53.4632C18.3518 52.1886 18.3878 50.4111 17.3024 49.071L20.1969 45.0871C22.774 46.7677 25.8047 47.7938 29.0625 47.9636V52.893C27.523 53.3089 26.3808 54.7038 26.3808 56.3729C26.3808 58.3682 28.0045 59.9918 29.9998 59.9918C31.995 59.9918 33.6187 58.3681 33.6187 56.3729C33.6187 54.7036 32.4765 53.3089 30.937 52.893V47.9642C34.1954 47.7961 37.2266 46.7704 39.804 45.0893L42.697 49.0711C41.6125 50.4104 41.647 52.1876 42.5739 53.4632C43.743 55.071 46.0005 55.4464 47.6285 54.2641C49.2431 53.09 49.607 50.8307 48.4294 49.2089C47.4989 47.9286 45.8186 47.3533 44.2139 47.9693L41.3222 43.9893C43.7558 42.0152 45.6536 39.4166 46.7981 36.4436L51.4825 37.9656C51.4025 39.5583 52.376 41.0755 53.9636 41.5916C55.8429 42.2025 57.9014 41.1834 58.5239 39.2682C59.1405 37.3703 58.0985 35.3247 56.2007 34.7077ZM54.543 20.1914C55.4602 19.8931 56.4441 20.3969 56.7411 21.3113C57.0384 22.225 56.5403 23.2114 55.6208 23.5094C54.7064 23.8077 53.7203 23.3043 53.4232 22.3895C53.1258 21.4748 53.6283 20.489 54.543 20.1914ZM44.0906 7.63903C44.6555 6.86067 45.745 6.685 46.5266 7.25278C47.3048 7.8175 47.4807 8.9077 46.9128 9.68922C46.3488 10.4664 45.2599 10.6436 44.4764 10.075C43.6978 9.50992 43.5232 8.41856 44.0906 7.63903ZM13.0871 9.68922C12.5197 8.90828 12.6946 7.81797 13.4734 7.25278C14.2547 6.68524 15.3443 6.86031 15.9094 7.63903C16.453 8.38598 16.3357 9.45953 15.5367 10.047C14.8199 10.5741 13.7269 10.5708 13.0871 9.68922ZM4.37918 23.5094C3.4616 23.2121 2.96098 22.2268 3.25887 21.3113C3.55816 20.3904 4.54887 19.8958 5.45695 20.1914C6.52652 20.5393 6.80648 21.5239 6.55488 22.3472C6.29648 23.1924 5.47828 23.8675 4.37918 23.5094ZM5.45695 39.8086C4.54219 40.1065 3.55687 39.6036 3.25887 38.6888C2.96144 37.774 3.46394 36.7882 4.37871 36.4907C5.46258 36.1375 6.27328 36.7912 6.54258 37.6209C6.81187 38.4509 6.53953 39.4571 5.45695 39.8086ZM15.9094 52.3611C15.3456 53.1379 14.2567 53.3165 13.4734 52.7473C12.6952 52.1826 12.5193 51.0924 13.0871 50.3109C13.7516 49.3954 14.7879 49.4534 15.4928 49.9676C16.1975 50.4818 16.5709 51.4521 15.9094 52.3611ZM46.9128 50.3109C47.4803 51.0918 47.3054 52.1821 46.5266 52.7473C45.7398 53.3182 44.6524 53.1352 44.0906 52.3611C43.5243 51.5829 43.6961 50.4913 44.4764 49.9251C45.2558 49.3589 46.3466 49.5305 46.9128 50.3109ZM28.2554 3.62735C28.2554 2.66535 29.038 1.88278 30 1.88278C30.962 1.88278 31.7446 2.66535 31.7446 3.62735C31.7446 4.75914 30.8723 5.33324 30.0001 5.33735C29.1278 5.34145 28.2554 4.77555 28.2554 3.62735ZM31.7444 56.3727C31.7444 57.3347 30.9619 58.1173 29.9999 58.1173C29.0379 58.1173 28.2553 57.3347 28.2553 56.3727C28.2553 55.4112 29.0379 54.6286 29.9999 54.6286C30.9619 54.6286 31.7444 55.4112 31.7444 56.3727ZM30.0055 46.1368C21.1044 46.1368 13.8633 38.8955 13.8633 29.9945C13.8633 21.0999 21.1045 13.8633 30.0055 13.8633C38.9002 13.8633 46.1367 21.0999 46.1367 29.9945C46.1367 38.8956 38.9002 46.1368 30.0055 46.1368ZM56.7411 38.6888C56.4437 39.6032 55.4598 40.1061 54.543 39.8086C53.6283 39.5117 53.1258 38.5254 53.4232 37.6105C53.7225 36.6897 54.7132 36.195 55.6213 36.4907C56.5361 36.7881 57.0386 37.7739 56.7411 38.6888Z" fill="#FF9999"/>
<path d="M30 27.9888C32.1321 27.9888 33.8666 26.2543 33.8666 24.1222V21.9218C33.8666 19.7897 32.1321 18.0552 30 18.0552C27.8679 18.0552 26.1334 19.7897 26.1334 21.9218V24.1222C26.1334 26.2543 27.8679 27.9888 30 27.9888ZM28.0079 21.9218C28.0079 20.8236 28.9017 19.9298 30 19.9298C31.0983 19.9298 31.9921 20.8236 31.9921 21.9218V24.1222C31.9921 25.2204 31.0983 26.1142 30 26.1142C28.9017 26.1142 28.0079 25.2204 28.0079 24.1222V21.9218ZM29.9954 28.732C25.2191 28.732 21.3333 32.6219 21.3333 37.4037C21.3333 37.7657 21.542 38.0957 21.8692 38.2507C27.2116 40.782 32.6813 40.8327 38.1308 38.2507C38.458 38.0956 38.6667 37.7657 38.6667 37.4037C38.6667 32.6219 34.7768 28.732 29.9954 28.732ZM23.2334 36.8129C23.5331 33.3404 26.4514 30.6064 29.9954 30.6064C33.5445 30.6064 36.4664 33.3402 36.7666 36.8129C32.2195 38.8082 27.7805 38.8082 23.2334 36.8129Z" fill="#FF9999"/>
</svg>

<svg width="60" height="60" fill="none" xmlns="http://www.w3.org/2000/svg"><path d="M32.682 3.627a2.682 2.682 0 11-5.364 0 2.682 2.682 0 015.364 0zm0 52.746a2.682 2.682 0 11-5.364 0 2.682 2.682 0 015.364 0zM16.668 7.088a2.682 2.682 0 11-4.34 3.152 2.682 2.682 0 014.34-3.152zM47.67 49.76a2.682 2.682 0 11-4.34 3.152 2.682 2.682 0 014.34-3.152zM5.747 19.3a2.682 2.682 0 11-1.658 5.1 2.682 2.682 0 011.658-5.1zM55.91 35.6a2.682 2.682 0 11-1.658 5.1 2.682 2.682 0 011.658-5.1zm-51.822 0a2.682 2.682 0 111.657 5.1 2.682 2.682 0 01-1.657-5.1zm50.164-16.3a2.682 2.682 0 111.657 5.1 2.682 2.682 0 01-1.657-5.1zM12.33 49.76a2.682 2.682 0 114.339 3.153 2.682 2.682 0 01-4.34-3.153zM43.332 7.088a2.682 2.682 0 114.339 3.152 2.682 2.682 0 01-4.339-3.152z" fill="#FF9494"/><path d="M47.074 29.994c0 9.44-7.64 17.08-17.069 17.08-9.428 0-17.08-7.64-17.08-17.08 0-9.428 7.652-17.068 17.08-17.068 9.429 0 17.069 7.64 17.069 17.069z" fill="#fff"/><path d="M32.93 21.922v2.2a2.93 2.93 0 11-5.86 0v-2.2a2.93 2.93 0 115.86 0zm4.8 15.481c-5.153 2.443-10.306 2.443-15.46 0 0-4.271 3.463-7.734 7.726-7.734a7.734 7.734 0 017.734 7.734z" fill="#FFD7D7"/><path d="M56.2 34.708c-1.587-.516-3.266.14-4.138 1.474l-4.685-1.522c.4-1.49.634-3.05.634-4.666 0-1.612-.233-3.167-.632-4.655l4.679-1.52a3.608 3.608 0 004.142 1.473 3.618 3.618 0 10-2.236-6.884c-1.588.516-2.561 2.034-2.481 3.626L46.8 23.556a18.071 18.071 0 00-5.477-7.547l2.887-3.974a3.592 3.592 0 004.218-1.244 3.618 3.618 0 00-.8-5.055 3.617 3.617 0 00-5.055.8 3.58 3.58 0 00.123 4.393l-2.892 3.98a17.875 17.875 0 00-8.868-2.873V7.107c1.54-.416 2.682-1.81 2.682-3.48a3.623 3.623 0 00-3.62-3.619 3.623 3.623 0 00-3.618 3.62c0 1.669 1.142 3.063 2.682 3.48v4.929a17.894 17.894 0 00-8.867 2.875l-2.894-3.983a3.579 3.579 0 00.124-4.392 3.618 3.618 0 10-5.855 4.254 3.593 3.593 0 004.218 1.245l2.889 3.976a18.071 18.071 0 00-5.478 7.544l-4.683-1.522c.08-1.592-.893-3.11-2.48-3.625A3.618 3.618 0 103.8 25.293a3.608 3.608 0 004.142-1.474l4.68 1.52a17.907 17.907 0 00-.633 4.656c0 1.616.233 3.175.634 4.666l-4.685 1.522a3.615 3.615 0 00-4.139-1.475 3.624 3.624 0 00-2.323 4.56 3.624 3.624 0 004.56 2.324c1.587-.516 2.56-2.033 2.481-3.626l4.685-1.522a18.082 18.082 0 005.477 7.543l-2.893 3.982a3.579 3.579 0 00-4.216 1.24 3.618 3.618 0 105.856 4.254 3.58 3.58 0 00-.124-4.392l2.895-3.984a17.886 17.886 0 008.866 2.877v4.929c-1.54.416-2.682 1.81-2.682 3.48A3.623 3.623 0 0030 59.992a3.623 3.623 0 003.619-3.62c0-1.668-1.142-3.063-2.682-3.479v-4.929a17.867 17.867 0 008.867-2.875l2.893 3.982a3.58 3.58 0 00-.123 4.392 3.618 3.618 0 105.855-4.254 3.579 3.579 0 00-4.215-1.24l-2.892-3.98a18.08 18.08 0 005.476-7.545l4.684 1.522c-.08 1.592.894 3.11 2.482 3.626a3.624 3.624 0 004.56-2.324 3.623 3.623 0 00-2.323-4.56zM54.544 20.19a1.745 1.745 0 111.078 3.32 1.745 1.745 0 01-1.078-3.32zM44.091 7.64a1.743 1.743 0 11.386 2.436 1.743 1.743 0 01-.386-2.436zM13.087 9.69a1.743 1.743 0 112.822-2.05c.544.747.427 1.82-.372 2.408-.717.527-1.81.524-2.45-.358zM4.38 23.51a1.744 1.744 0 111.078-3.318c1.07.348 1.35 1.333 1.098 2.156-.259.845-1.077 1.52-2.176 1.162zm1.078 16.3a1.746 1.746 0 01-2.198-1.12 1.746 1.746 0 011.12-2.198c1.084-.353 1.894.3 2.164 1.13.269.83-.003 1.836-1.086 2.188zm10.451 12.55a1.743 1.743 0 11-2.822-2.05c.665-.916 1.7-.858 2.406-.343.705.514 1.078 1.484.416 2.393zm31.004-2.05a1.743 1.743 0 11-2.822 2.05 1.743 1.743 0 112.822-2.05zM28.255 3.627c0-.962.783-1.744 1.745-1.744.962 0 1.745.782 1.745 1.744 0 1.132-.873 1.706-1.745 1.71-.872.004-1.745-.561-1.745-1.71zm3.49 52.746c0 .962-.783 1.744-1.745 1.744a1.747 1.747 0 01-1.745-1.744 1.746 1.746 0 013.489 0zm-1.74-10.236c-8.9 0-16.142-7.242-16.142-16.143 0-8.894 7.242-16.13 16.143-16.13 8.894 0 16.13 7.236 16.13 16.13 0 8.902-7.236 16.143-16.13 16.143zm26.736-7.448a1.746 1.746 0 01-2.198 1.12 1.746 1.746 0 01-1.12-2.198 1.746 1.746 0 012.198-1.12 1.746 1.746 0 011.12 2.198z" fill="#F99"/><path d="M30 27.989a3.87 3.87 0 003.867-3.867v-2.2A3.87 3.87 0 0030 18.055a3.87 3.87 0 00-3.867 3.867v2.2A3.87 3.87 0 0030 27.99zm-1.992-6.067c0-1.098.894-1.992 1.992-1.992 1.098 0 1.992.894 1.992 1.992v2.2A1.995 1.995 0 0130 26.114a1.995 1.995 0 01-1.992-1.992v-2.2zm1.987 6.81c-4.776 0-8.662 3.89-8.662 8.672 0 .362.209.692.536.847 5.343 2.531 10.812 2.582 16.262 0a.938.938 0 00.536-.847c0-4.782-3.89-8.672-8.672-8.672zm-6.762 8.08c.3-3.472 3.218-6.206 6.762-6.206 3.55 0 6.471 2.734 6.772 6.207-4.548 1.995-8.987 1.995-13.534 0z" fill="#F99"/></svg>
